packages/foundations/assets/icons/functional/images/arrows/arrow_up.svg

<svg xmlns="http://www.w3.org/2000/svg" width="32" height="32" fill="none"><path fill="#1A1C1F" fill-rule="evenodd" d="M15.547 6.104c-.253.115-8.38 8.283-8.478 8.521-.114.276-.103.512.038.787.263.517.837.728 1.329.49.166-.081 1.122-1.013 3.378-3.296l3.146-3.184.027 7.951.026 7.951.16.227a.98.98 0 0 0 .827.435.98.98 0 0 0 .827-.435l.16-.227.026-7.951.027-7.951 3.147 3.184c2.25 2.277 3.212 3.216 3.378 3.296.183.089.292.106.525.082.38-.04.622-.206.791-.541.157-.314.166-.566.03-.856-.125-.266-8.277-8.421-8.501-8.505-.209-.077-.671-.066-.863.022"/></svg>

<svg width="32" height="32" viewBox="0 0 32 32" fill="none" xmlns="http://www.w3.org/2000/svg"><path d="M15.547 6.104 C 15.294 6.219,7.167 14.387,7.069 14.625 C 6.955 14.901,6.966 15.137,7.107 15.412 C 7.370 15.929,7.944 16.140,8.436 15.902 C 8.602 15.821,9.558 14.889,11.814 12.606 L 14.960 9.422 14.987 17.373 L 15.013 25.324 15.173 25.551 C 15.376 25.837,15.658 25.986,16.000 25.986 C 16.342 25.986,16.624 25.837,16.827 25.551 L 16.987 25.324 17.013 17.373 L 17.040 9.422 20.187 12.606 C 22.437 14.883,23.399 15.822,23.565 15.902 C 23.748 15.991,23.857 16.008,24.090 15.984 C 24.470 15.944,24.712 15.778,24.881 15.443 C 25.038 15.129,25.047 14.877,24.911 14.587 C 24.786 14.321,16.634 6.166,16.410 6.082 C 16.201 6.005,15.739 6.016,15.547 6.104 " fill="#1A1C1F" stroke="none" fill-rule="evenodd"></path></svg>
